src/assets/img/error_page.svg

<svg width="130" height="213" viewBox="0 0 130 213" fill="none" xmlns="http://www.w3.org/2000/svg">
<g clip-path="url(#clip0_2648_4889)">
<path d="M11.9612 207.706C8.55897 207.627 5.82812 205.113 5.82812 202.021V147.209" stroke="#2F3645" stroke-width="3" stroke-miterlimit="10"/>
<path d="M65.0286 170.334V196.184V196.402" stroke="#2F3645" stroke-width="3" stroke-miterlimit="10" stroke-linecap="round"/>
<path d="M65.0286 197.257V197.15" stroke="#2F3645" stroke-width="3" stroke-miterlimit="10" stroke-linecap="round"/>
<path d="M129.299 150.204V203.843C129.299 208.515 124.966 212.303 119.625 212.303H10.3766C5.03221 212.303 0.702148 208.514 0.702148 203.843V150.13C0.732931 147.404 2.80268 145.108 5.83695 144.28L5.86333 199.093V199.687C5.86333 202.461 8.59417 204.707 11.9964 204.779H58.7329C62.1438 204.779 64.9201 204.779 65.0257 196.873C65.0257 196.915 65.0257 196.959 65.0257 197.003C65.0257 197.047 65.0257 197.099 65.0257 197.149V196.401C65.0257 204.779 67.8445 204.779 71.3214 204.779H118.065C119.621 204.767 121.129 204.242 122.354 203.288C123.493 202.366 124.198 201.097 124.198 199.687V197.172L124.225 144.219C127.156 145.039 129.173 147.234 129.291 149.867C129.296 149.979 129.299 150.09 129.299 150.204Z" fill="#E6B9A6" stroke="#2F3645" stroke-width="3" stroke-miterlimit="10"/>
<path d="M124.198 144.219V189.068V197.172V198.009" stroke="#2F3645" stroke-width="3" stroke-miterlimit="10"/>
<path d="M124.198 199.092C124.195 200.317 123.766 201.504 122.985 202.45C122.97 202.471 122.954 202.49 122.939 202.507C122.336 203.21 121.59 203.777 120.749 204.169C119.908 204.561 118.993 204.77 118.065 204.781" stroke="#2F3645" stroke-width="3" stroke-miterlimit="10"/>
<path d="M65.0286 196.402C65.0286 196.534 65.0286 196.662 65.0286 196.789C65.0271 196.795 65.0271 196.801 65.0286 196.807C65.0286 196.824 65.0286 196.84 65.0286 196.858V196.874" stroke="#2F3645" stroke-width="3" stroke-miterlimit="10"/>
<path d="M124.198 136.076V189.068C124.198 192.209 121.379 194.755 117.903 194.755L71.3243 192.067C65.6721 192.067 65.0726 193.596 65.0286 196.185C65.0286 196.379 65.0286 196.582 65.0286 196.789C65.0271 196.795 65.0271 196.801 65.0286 196.807V197.004C65.0286 196.96 65.0286 196.916 65.0286 196.874V196.858C64.9978 193.888 64.8073 192.067 58.7358 192.067L12.1547 194.755C8.67773 194.755 5.86334 192.209 5.86334 189.068V136.076C5.86334 132.934 8.68213 130.381 12.1664 130.381L42.5443 128.15C46.6378 127.849 50.7421 127.698 54.8572 127.697H58.7343C62.2113 127.697 65.0301 131.59 65.0301 134.731C65.0301 131.59 67.8489 127.697 71.3258 127.697H75.137C79.2413 127.697 83.3363 127.848 87.4221 128.15L117.911 130.387C121.379 130.387 124.198 132.934 124.198 136.076Z" fill="white" stroke="#2F3645" stroke-width="3" stroke-linejoin="round"/>
<path d="M65.0198 153.457C67.8322 153.457 70.1121 151.894 70.1121 149.966C70.1121 148.038 67.8322 146.475 65.0198 146.475C62.2074 146.475 59.9275 148.038 59.9275 149.966C59.9275 151.894 62.2074 153.457 65.0198 153.457Z" stroke="#2F3645" stroke-width="3" stroke-miterlimit="10" stroke-linecap="round"/>
<path d="M74.0317 145.191L78.2225 148.998" stroke="#2F3645" stroke-width="3" stroke-miterlimit="10" stroke-linecap="round"/>
<path d="M74.0317 148.998L78.2225 145.191" stroke="#2F3645" stroke-width="3" stroke-miterlimit="10" stroke-linecap="round"/>
<path d="M51.8405 145.191L56.0299 148.998" stroke="#2F3645" stroke-width="3" stroke-miterlimit="10" stroke-linecap="round"/>
<path d="M51.8405 148.998L56.0299 145.191" stroke="#2F3645" stroke-width="3" stroke-miterlimit="10" stroke-linecap="round"/>
</g>
<path d="M88.7718 2H38.2595C35.3366 1.99941 32.4422 2.57462 29.7415 3.69278C27.0409 4.81094 24.587 6.45015 22.5199 8.51678C20.4529 10.5834 18.8132 13.037 17.6945 15.7374C16.5758 18.4378 16 21.3321 16 24.2551V74.7941C16 77.7171 16.5758 80.6114 17.6945 83.3118C18.8132 86.0122 20.4529 88.4658 22.5199 90.5324C24.587 92.599 27.0409 94.2383 29.7415 95.3564C32.4422 96.4746 35.3366 97.0498 38.2595 97.0492H52.8622L58.8106 107.747C59.183 108.416 59.7236 108.976 60.3789 109.371C61.0342 109.767 61.7815 109.984 62.5466 110.001C63.3118 110.019 64.0683 109.836 64.7411 109.472C65.4139 109.107 65.9798 108.573 66.3825 107.922L73.0912 97.0492H88.7449C91.6675 97.0492 94.5615 96.4735 97.2616 95.3551C99.9617 94.2367 102.415 92.5974 104.482 90.5308C106.548 88.4643 108.188 86.0109 109.306 83.3108C110.424 80.6107 111 77.7167 111 74.7941V24.2551C111 18.3573 108.659 12.7007 104.491 8.52784C100.323 4.35497 94.6695 2.00711 88.7718 2Z" stroke="#2F3645" stroke-width="3" stroke-miterlimit="10"/>
<path d="M58.2763 76.2187H45.8112C44.27 76.2187 42.7919 75.6064 41.7021 74.5166C40.6123 73.4268 40 71.9487 40 70.4075V27.8112C40 26.27 40.6123 24.7919 41.7021 23.7021C42.7919 22.6123 44.27 22 45.8112 22H68.1844" stroke="#2F3645" stroke-width="5" stroke-linecap="round" stroke-linejoin="round"/>
<path d="M82.3356 36.2354V45.5624" stroke="#2F3645" stroke-width="5" stroke-linecap="round" stroke-linejoin="round"/>
<path d="M79.4594 38.3873H68.5924C67.8834 38.3873 67.2035 38.1057 66.7022 37.6044C66.2008 37.1031 65.9192 36.4231 65.9192 35.7142V24.8181C65.9021 24.2825 66.0464 23.754 66.3334 23.3014C66.6204 22.8487 67.0368 22.4928 67.5286 22.2798C68.0204 22.0668 68.5649 22.0065 69.0913 22.1068C69.6178 22.2071 70.102 22.4634 70.481 22.8423L81.5223 33.7965C81.9029 34.1846 82.1576 34.6785 82.2531 35.2136C82.3486 35.7487 82.2806 36.3002 82.0578 36.796C81.8349 37.2918 81.4678 37.7089 81.0042 37.9928C80.5407 38.2767 80.0023 38.4142 79.4594 38.3873Z" stroke="#2F3645" stroke-width="5" stroke-linecap="round" stroke-linejoin="round"/>
<path d="M72.1069 54.9511L64.8719 67.4452C64.3609 68.3303 64.0923 69.3345 64.0933 70.3566C64.0943 71.3786 64.3649 72.3823 64.8777 73.2664C65.3904 74.1505 66.1273 74.8838 67.014 75.3921C67.9006 75.9005 68.9056 76.1661 69.9277 76.162H84.4557C85.4778 76.1661 86.4828 75.9005 87.3694 75.3921C88.2561 74.8838 88.9929 74.1505 89.5057 73.2664C90.0185 72.3823 90.2891 71.3786 90.2901 70.3566C90.2911 69.3345 90.0225 68.3303 89.5115 67.4452L82.3056 54.9511C81.8053 54.0357 81.0678 53.2718 80.1706 52.7397C79.2733 52.2076 78.2494 51.9268 77.2062 51.9268C76.163 51.9268 75.1391 52.2076 74.2419 52.7397C73.3446 53.2718 72.6072 54.0357 72.1069 54.9511Z" fill="#FEC420" stroke="#2F3645" stroke-width="5" stroke-linecap="round" stroke-linejoin="round"/>
<path d="M78.3551 66.8337H75.9725L75.188 58.7852H79.1106L78.3551 66.8337Z" fill="#2F3645"/>
<path d="M77.1624 67.8787C77.8204 67.8787 78.3537 67.3453 78.3537 66.6874C78.3537 66.0295 77.8204 65.4961 77.1624 65.4961C76.5045 65.4961 75.9711 66.0295 75.9711 66.6874C75.9711 67.3453 76.5045 67.8787 77.1624 67.8787Z" fill="#2F3645"/>
<path d="M77.1638 60.646C78.255 60.646 79.1396 59.7614 79.1396 58.6702C79.1396 57.5789 78.255 56.6943 77.1638 56.6943C76.0726 56.6943 75.188 57.5789 75.188 58.6702C75.188 59.7614 76.0726 60.646 77.1638 60.646Z" fill="#2F3645"/>
<path d="M77.1638 73.2837C78.255 73.2837 79.1396 72.3991 79.1396 71.3078C79.1396 70.2166 78.255 69.332 77.1638 69.332C76.0726 69.332 75.188 70.2166 75.188 71.3078C75.188 72.3991 76.0726 73.2837 77.1638 73.2837Z" fill="#2F3645"/>
<defs>
<clipPath id="clip0_2648_4889">
<rect width="130" height="86" fill="white" transform="translate(0 127)"/>
</clipPath>
</defs>
</svg>

<svg width="130" height="213" fill="none" xmlns="http://www.w3.org/2000/svg"><g clip-path="url(#a)" stroke="#2F3645" stroke-width="3"><path d="M11.961 207.706c-3.402-.079-6.133-2.593-6.133-5.685v-54.812" stroke-miterlimit="10"/><path d="M65.029 170.334v26.068M65.029 197.257v-.107" stroke-miterlimit="10" stroke-linecap="round"/><path d="M129.299 150.204v53.639c0 4.672-4.333 8.46-9.674 8.46H10.377c-5.345 0-9.675-3.789-9.675-8.46V150.13c.03-2.726 2.1-5.022 5.135-5.85l.026 54.813v.594c0 2.774 2.731 5.02 6.133 5.092h46.737c3.41 0 6.187 0 6.293-7.906v.276-.748c0 8.378 2.819 8.378 6.295 8.378h46.744a7.07 7.07 0 0 0 4.289-1.491c1.139-.922 1.844-2.191 1.844-3.601v-2.515l.027-52.953c2.931.82 4.948 3.015 5.066 5.648.005.112.008.223.008.337z" fill="#E6B9A6" stroke-miterlimit="10"/><path d="M124.198 144.219v53.79M124.198 199.092a5.296 5.296 0 0 1-1.259 3.415 6.507 6.507 0 0 1-2.19 1.662 6.537 6.537 0 0 1-2.684.612M65.029 196.402v.387a.037.037 0 0 0 0 .018v.067" stroke-miterlimit="10"/><path d="M124.198 136.076v52.992c0 3.141-2.819 5.687-6.295 5.687l-46.579-2.688c-5.652 0-6.251 1.529-6.295 4.118v.604a.037.037 0 0 0 0 .018v.197V196.858c-.031-2.97-.222-4.791-6.293-4.791l-46.581 2.688c-3.477 0-6.292-2.546-6.292-5.687v-52.992c0-3.142 2.82-5.695 6.303-5.695l30.378-2.231c4.094-.301 8.198-.452 12.313-.453h3.877c3.477 0 6.296 3.893 6.296 7.034 0-3.141 2.819-7.034 6.296-7.034h3.811c4.104 0 8.2.151 12.285.453l30.489 2.237c3.468 0 6.287 2.547 6.287 5.689z" fill="#fff" stroke-linejoin="round"/><path d="M65.02 153.457c2.812 0 5.092-1.563 5.092-3.491 0-1.928-2.28-3.491-5.092-3.491-2.813 0-5.092 1.563-5.092 3.491 0 1.928 2.28 3.491 5.092 3.491zM74.032 145.191l4.19 3.807M74.032 148.998l4.19-3.807M51.84 145.191l4.19 3.807M51.84 148.998l4.19-3.807" stroke-miterlimit="10" stroke-linecap="round"/></g><path d="M88.772 2H38.259A22.255 22.255 0 0 0 16 24.255v50.54a22.255 22.255 0 0 0 22.26 22.254h14.602l5.949 10.698a4.388 4.388 0 0 0 3.736 2.254 4.396 4.396 0 0 0 3.835-2.079l6.71-10.873h15.653A22.256 22.256 0 0 0 111 74.794V24.255A22.255 22.255 0 0 0 88.772 2z" stroke="#2F3645" stroke-width="3" stroke-miterlimit="10"/><path d="M58.276 76.219H45.811A5.811 5.811 0 0 1 40 70.408V27.81A5.811 5.811 0 0 1 45.811 22h22.373M82.336 36.235v9.327" stroke="#2F3645" stroke-width="5" stroke-linecap="round" stroke-linejoin="round"/><path d="M79.46 38.387H68.591a2.673 2.673 0 0 1-2.673-2.673V24.818a2.673 2.673 0 0 1 4.562-1.976l11.041 10.955a2.702 2.702 0 0 1-2.063 4.59z" stroke="#2F3645" stroke-width="5" stroke-linecap="round" stroke-linejoin="round"/><path d="m72.107 54.951-7.235 12.494a5.811 5.811 0 0 0 5.056 8.717h14.528a5.81 5.81 0 0 0 5.055-8.717l-7.205-12.494a5.811 5.811 0 0 0-10.2 0z" fill="#FEC420" stroke="#2F3645" stroke-width="5" stroke-linecap="round" stroke-linejoin="round"/><path d="M78.355 66.834h-2.383l-.784-8.049h3.923l-.756 8.049z" fill="#2F3645"/><path d="M77.162 67.879a1.191 1.191 0 1 0 0-2.383 1.191 1.191 0 0 0 0 2.383zM77.164 60.646a1.976 1.976 0 1 0 0-3.952 1.976 1.976 0 0 0 0 3.952zM77.164 73.284a1.976 1.976 0 1 0 0-3.952 1.976 1.976 0 0 0 0 3.952z" fill="#2F3645"/><defs><clipPath id="a"><path fill="#fff" transform="translate(0 127)" d="M0 0h130v86H0z"/></clipPath></defs></svg>
